assets/caps-lock.svg

<svg xmlns="http://www.w3.org/2000/svg" fill="none" viewBox="0 0 28 28">
  <path fill="#2A2238" fill-rule="evenodd" d="M12.6088.600118c.1783-.18941.3937-.340404.6329-.44363C13.481.053262 13.739 0 13.9997 0c.2608 0 .5188.053262.758.156488.2393.103226.4547.25422.6329.44363L27.4798 13.4346c1.1432 1.2095.2782 3.1906-1.3908 3.1906h-5.4207v1.8958c0 .5028-.2007.985-.558 1.3406-.3573.3555-.842.5552-1.3473.5552H9.23643c-.50532 0-.98995-.1997-1.34726-.5552-.35732-.3556-.55806-.8378-.55806-1.3406v-1.8958H1.90858c-1.665246 0-2.53026-1.9811-1.39088-3.1925L12.6088.600118ZM26.0909 14.7295 13.9997 1.89684 1.90858 14.7295h5.42253c.50532 0 .98995.1997 1.34727.5552.35731.3556.55805.8378.55805 1.3405v1.8958H18.763v-1.8958c0-.5027.2008-.9849.5581-1.3405.3573-.3555.8419-.5552 1.3472-.5552h5.4226ZM7.33111 24.2084c0-.5028.20074-.985.55806-1.3405.35731-.3555.84194-.5553 1.34726-.5553H18.763c.5053 0 .99.1998 1.3473.5553.3573.3555.558.8377.558 1.3405v1.8958c0 .5028-.2007.985-.558 1.3405-.3573.3556-.842.5553-1.3473.5553H9.23643c-.50532 0-.98995-.1997-1.34726-.5553-.35732-.3555-.55806-.8377-.55806-1.3405v-1.8958Zm11.43189 0H9.23643v1.8958H18.763v-1.8958Z" clip-rule="evenodd"/>
</svg>

<svg width="28" height="28" viewBox="0 0 28 28" fill="none" xmlns="http://www.w3.org/2000/svg">
<path fill-rule="evenodd" clip-rule="evenodd" d="M12.6088 0.600118C12.7871 0.410708 13.0025 0.259714 13.2417 0.156488C13.481 0.053262 13.739 0 13.9997 0C14.2605 0 14.5185 0.053262 14.7577 0.156488C14.997 0.259714 15.2124 0.410708 15.3906 0.600118L27.4798 13.4346C28.623 14.6441 27.758 16.6252 26.089 16.6252H20.6683V18.521C20.6683 19.0238 20.4676 19.506 20.1103 19.8616C19.753 20.2171 19.2683 20.4168 18.763 20.4168H9.23643C8.73111 20.4168 8.24648 20.2171 7.88917 19.8616C7.53185 19.506 7.33111 19.0238 7.33111 18.521V16.6252H1.90858C0.243334 16.6252 -0.62168 14.6441 0.5177 13.4327L12.6088 0.600118ZM26.0909 14.7295L13.9997 1.89684L1.90858 14.7295H7.33111C7.83643 14.7295 8.32106 14.9292 8.67838 15.2847C9.03569 15.6403 9.23643 16.1225 9.23643 16.6252V18.521H18.763V16.6252C18.763 16.1225 18.9638 15.6403 19.3211 15.2847C19.6784 14.9292 20.163 14.7295 20.6683 14.7295H26.0909ZM7.33111 24.2084C7.33111 23.7056 7.53185 23.2234 7.88917 22.8679C8.24648 22.5124 8.73111 22.3126 9.23643 22.3126H18.763C19.2683 22.3126 19.753 22.5124 20.1103 22.8679C20.4676 23.2234 20.6683 23.7056 20.6683 24.2084V26.1042C20.6683 26.607 20.4676 27.0892 20.1103 27.4447C19.753 27.8003 19.2683 28 18.763 28H9.23643C8.73111 28 8.24648 27.8003 7.88917 27.4447C7.53185 27.0892 7.33111 26.607 7.33111 26.1042V24.2084ZM18.763 24.2084H9.23643V26.1042H18.763V24.2084Z" fill="#2A2238"/>
</svg>
